other/joelchrono12/serveit.svg

<?xml version="1.0" encoding="UTF-8" standalone="no"?>
<!-- Created with Inkscape (http://www.inkscape.org/) -->

<svg
   width="48"
   height="48"
   viewBox="0 0 48 48"
   version="1.1"
   id="svg5"
   inkscape:version="1.1.1 (3bf5ae0d25, 2021-09-20)"
   sodipodi:docname="serveit.svg"
   xmlns:inkscape="http://www.inkscape.org/namespaces/inkscape"
   xmlns:sodipodi="http://sodipodi.sourceforge.net/DTD/sodipodi-0.dtd"
   xmlns="http://www.w3.org/2000/svg"
   xmlns:svg="http://www.w3.org/2000/svg">
  <sodipodi:namedview
     id="namedview7"
     pagecolor="#505050"
     bordercolor="#eeeeee"
     borderopacity="1"
     inkscape:pageshadow="0"
     inkscape:pageopacity="0"
     inkscape:pagecheckerboard="0"
     inkscape:document-units="px"
     showgrid="false"
     units="px"
     showguides="true"
     inkscape:guide-bbox="true"
     inkscape:object-paths="true"
     inkscape:snap-intersection-paths="true"
     inkscape:zoom="11.313709"
     inkscape:cx="4.8171649"
     inkscape:cy="25.323262"
     inkscape:window-width="1884"
     inkscape:window-height="1025"
     inkscape:window-x="15"
     inkscape:window-y="34"
     inkscape:window-maximized="1"
     inkscape:current-layer="layer1">
    <sodipodi:guide
       position="24,24"
       orientation="-1,0"
       id="guide3653"
       inkscape:label=""
       inkscape:locked="false"
       inkscape:color="rgb(0,0,255)" />
  </sodipodi:namedview>
  <defs
     id="defs2" />
  <g
     inkscape:label="Layer 1"
     inkscape:groupmode="layer"
     id="layer1">
    <g
       id="g4696"
       transform="rotate(180,24,24)" />
    <path
       style="fill:none;stroke:#ffffff;stroke-width:1px;stroke-linecap:butt;stroke-linejoin:miter;stroke-opacity:1"
       d="M 9.1994658,32.51807 20.252935,26.186779 m 7.592202,0.05662 10.955399,6.274671"
       id="path4214"
       sodipodi:nodetypes="cccc" />
    <path
       style="fill:none;stroke:#ffffff;stroke-width:1px;stroke-linecap:butt;stroke-linejoin:miter;stroke-opacity:1"
       d="M 24,19.57275 V 6.8827942"
       id="path4216"
       sodipodi:nodetypes="cc" />
    <path
       sodipodi:type="star"
       style="fill:none;stroke:#ffffff;stroke-linecap:round;stroke-linejoin:round;stroke-miterlimit:10;paint-order:stroke fill markers;stop-color:#000000"
       id="path4262"
       inkscape:flatsided="true"
       sodipodi:sides="6"
       sodipodi:cx="24"
       sodipodi:cy="23.999998"
       sodipodi:r1="4.4506593"
       sodipodi:r2="3.8543842"
       sodipodi:arg1="0.52359878"
       sodipodi:arg2="1.0471976"
       inkscape:rounded="0"
       inkscape:randomized="0"
       d="M 27.854384,26.225328 24,28.450657 l -3.854384,-2.225329 0,-4.45066 L 24,19.549339 l 3.854384,2.225329 z"
       transform="translate(0,0.02341125)" />
    <path
       sodipodi:type="star"
       style="fill:none;stroke:#ffffff;stroke-linecap:round;stroke-linejoin:round;stroke-miterlimit:10;paint-order:stroke fill markers;stop-color:#000000"
       id="path4264"
       inkscape:flatsided="true"
       sodipodi:sides="6"
       sodipodi:cx="24"
       sodipodi:cy="31.034727"
       sodipodi:r1="2.58407"
       sodipodi:r2="2.2378702"
       sodipodi:arg1="1.5707963"
       sodipodi:arg2="2.0943951"
       inkscape:rounded="0"
       inkscape:randomized="0"
       d="m 24,33.618797 -2.23787,-1.292035 0,-2.58407 L 24,28.450657 l 2.23787,1.292035 0,2.58407 z"
       transform="translate(0,0.02341125)" />
    <path
       sodipodi:type="star"
       style="fill:none;stroke:#ffffff;stroke-linecap:round;stroke-linejoin:round;stroke-miterlimit:10;paint-order:stroke fill markers;stop-color:#000000"
       id="path4346"
       inkscape:flatsided="true"
       sodipodi:sides="6"
       sodipodi:cx="17.907745"
       sodipodi:cy="20.482634"
       sodipodi:r1="2.58407"
       sodipodi:r2="2.2378702"
       sodipodi:arg1="1.5707963"
       sodipodi:arg2="2.0943951"
       inkscape:rounded="0"
       inkscape:randomized="0"
       d="m 17.907745,23.066704 -2.23787,-1.292035 0,-2.58407 2.23787,-1.292035 2.237871,1.292035 0,2.58407 z"
       transform="translate(0,0.02341125)" />
    <path
       sodipodi:type="star"
       style="fill:none;stroke:#ffffff;stroke-linecap:round;stroke-linejoin:round;stroke-miterlimit:10;paint-order:stroke fill markers;stop-color:#000000"
       id="path4348"
       inkscape:flatsided="true"
       sodipodi:sides="6"
       sodipodi:cx="30.092255"
       sodipodi:cy="20.482634"
       sodipodi:r1="2.58407"
       sodipodi:r2="2.2378702"
       sodipodi:arg1="1.5707963"
       sodipodi:arg2="2.0943951"
       inkscape:rounded="0"
       inkscape:randomized="0"
       d="m 30.092255,23.066704 -2.237871,-1.292035 0,-2.58407 2.237871,-1.292035 2.23787,1.292035 0,2.58407 z"
       transform="translate(0,0.02341125)" />
    <path
       id="path4698"
       style="fill:none;stroke:#ffffff;stroke-linecap:round;stroke-linejoin:round;stroke-miterlimit:10;paint-order:stroke fill markers;stop-color:#000000"
       d="m 6.8172922,31.18489 c -0.9427194,-2.261899 -1.432662,-4.695293 -1.432662,-7.161479 0,-2.557264 0.5156502,-4.994091 1.5128057,-7.232617 L 9.1994658,15.47832 9.1872738,12.82875 C 12.133855,8.8844066 16.583727,6.187916 21.672813,5.5522447"
       sodipodi:nodetypes="cscccc" />
    <path
       id="path6711"
       style="fill:none;stroke:#ffffff;stroke-linecap:round;stroke-linejoin:round;stroke-miterlimit:10;paint-order:stroke fill markers;stop-color:#000000"
       d="m 42.615372,24.023411 c 0,-2.557264 -0.51565,-4.994091 -1.512806,-7.232617 l -2.30203,-1.312474 0.01219,-2.64957 c -0.0034,-0.0046 -0.0069,-0.0092 -0.01035,-0.01384 C 35.881328,8.9122976 31.487438,6.234017 26.45951,5.5692559"
       sodipodi:nodetypes="ccccsc" />
    <path
       id="path6793"
       style="fill:none;stroke:#ffffff;stroke-linecap:round;stroke-linejoin:round;stroke-miterlimit:10;paint-order:stroke fill markers;stop-color:#000000"
       d="m 9.1872738,35.16764 c 1.4954232,1.975268 3.3460372,3.730653 5.5050422,4.977155 2.214655,1.278632 4.582834,2.05048 7.020033,2.30618 L 24,41.113596 l 2.2885,1.335341"
       sodipodi:nodetypes="csccc" />
    <path
       id="path9824"
       style="fill:none;stroke:#ffffff;stroke-linecap:round;stroke-linejoin:round;stroke-miterlimit:10;paint-order:stroke fill markers;stop-color:#000000"
       d="m 5.3846302,23.972979 c 0,2.557264 0.5156502,4.994091 1.5128057,7.232617 l 2.3020299,1.312474 -0.012192,2.64957"
       sodipodi:nodetypes="cccc" />
    <path
       id="path9826"
       style="fill:none;stroke:#ffffff;stroke-linecap:round;stroke-linejoin:round;stroke-miterlimit:10;paint-order:stroke fill markers;stop-color:#000000"
       d="m 42.615372,23.972979 c 0,2.557264 -0.51565,4.994091 -1.512806,7.232617 l -2.30203,1.312474 0.01219,2.64957 c -2.959753,3.961976 -7.436266,6.664917 -12.553823,7.284907"
       sodipodi:nodetypes="ccccc" />
    <path
       id="path9828"
       style="fill:none;stroke:#ffffff;stroke-linecap:round;stroke-linejoin:round;stroke-miterlimit:10;paint-order:stroke fill markers;stop-color:#000000"
       d="m 14.692316,7.851595 c 2.214655,-1.278632 4.582834,-2.05048 7.020033,-2.30618 L 24,6.882794 26.2885,5.547453"
       sodipodi:nodetypes="cccc" />
  </g>
</svg>

<svg width="48" height="48" version="1.1" viewBox="0 0 48 48" xmlns="http://www.w3.org/2000/svg">
 <g fill="none" stroke="#fff" stroke-miterlimit="9">
  <path d="m9.1995 32.518 11.053-6.3313m7.5922 0.05662 10.955 6.2747"/>
  <path d="m24 19.573v-12.69"/>
  <g stroke-linecap="round" stroke-linejoin="round">
   <path transform="translate(0 .023411)" d="m27.854 26.225-3.8544 2.2253-3.8544-2.2253v-4.4507l3.8544-2.2253 3.8544 2.2253z" stop-color="#000000" style="paint-order:stroke fill markers"/>
   <path transform="translate(0 .023411)" d="m24 33.619-2.2379-1.292v-2.5841l2.2379-1.292 2.2379 1.292v2.5841z" stop-color="#000000" style="paint-order:stroke fill markers"/>
   <path transform="translate(0 .023411)" d="m17.908 23.067-2.2379-1.292v-2.5841l2.2379-1.292 2.2379 1.292v2.5841z" stop-color="#000000" style="paint-order:stroke fill markers"/>
   <path transform="translate(0 .023411)" d="m30.092 23.067-2.2379-1.292v-2.5841l2.2379-1.292 2.2379 1.292v2.5841z" stop-color="#000000" style="paint-order:stroke fill markers"/>
   <path d="m6.8173 31.185c-0.94272-2.2619-1.4327-4.6953-1.4327-7.1615 0-2.5573 0.51565-4.9941 1.5128-7.2326l2.302-1.3125-0.012192-2.6496c2.9466-3.9443 7.3965-6.6408 12.486-7.2765" stop-color="#000000" style="paint-order:stroke fill markers"/>
   <path d="m42.615 24.023c0-2.5573-0.51565-4.9941-1.5128-7.2326l-2.302-1.3125 0.01219-2.6496c-0.0034-0.0046-0.0069-0.0092-0.01035-0.01384-2.921-3.9026-7.3149-6.5809-12.343-7.2457" stop-color="#000000" style="paint-order:stroke fill markers"/>
   <path d="m9.1873 35.168c1.4954 1.9753 3.346 3.7307 5.505 4.9772 2.2147 1.2786 4.5828 2.0505 7.02 2.3062l2.2877-1.3374 2.2885 1.3353" stop-color="#000000" style="paint-order:stroke fill markers"/>
   <path d="m5.3846 23.973c0 2.5573 0.51565 4.9941 1.5128 7.2326l2.302 1.3125-0.012192 2.6496" stop-color="#000000" style="paint-order:stroke fill markers"/>
   <path d="m42.615 23.973c0 2.5573-0.51565 4.9941-1.5128 7.2326l-2.302 1.3125 0.01219 2.6496c-2.9598 3.962-7.4363 6.6649-12.554 7.2849" stop-color="#000000" style="paint-order:stroke fill markers"/>
   <path d="m14.692 7.8516c2.2147-1.2786 4.5828-2.0505 7.02-2.3062l2.2877 1.3374 2.2885-1.3353" stop-color="#000000" style="paint-order:stroke fill markers"/>
  </g>
 </g>
</svg>
